X:1
T:Title
%%score { ( 1 4 ) | ( 2 3 ) }
L:1/8
Q:1/4=84
M:6/8
K:F
V:1 treble nm="Grand Piano"
V:4 treble 
V:2 treble 
V:3 treble 
V:1
 A3 c3 | B6 | A[GB][Ff] [Ge][Af][Fd] | [Ec]6 | [FA][FA][Fc] [FB]3 | [G=B][GB][Gd] [Gc]2 [E_B] | %6
w: M.~L.~McPhail *||||||
 AB[Fd] dcE | F6 |] %8
w: ||
V:2
 [F,CF]3 [A,CF]3 | [G,CE]6 | [F,CF][E,C][D,=B,] C-[F,C][G,B,] | [C,C]6 | %4
 [F,C][F,C][_E,A,] [D,B,]3 | [G,D][G,D][F,=B,] [E,C]2 [C,C] | .[F,C]3 z3 | [F,A,C]6 |] %8
V:3
 x6 | x6 | z3 .C,3 | x6 | x6 | x6 | F-[D,B,F][B,,B,] [C,B,]2 [C,B,C] | x6 |] %8
V:4
 x6 | x6 | x6 | x6 | x6 | x6 | z3 .E3 | x6 |] %8

